X: 5
T:Blue Bell Polka
% Nottingham Music Database
P:ABACA
S:Jimmy Shand
M:4/4
L:1/8
R:Hornpipe
K:G
B2/3d2/3g2/3|:"G"b2b2 gfge|"G"d2d2 B2G2|"D7"FGAB c2e2|"G"ed^cd "D7"B2 B2/3d2/3g2/3|
"G"b2b2 gfge|"G"d2d2 B2G2|"D7"FGAB cdef|[1"G"g2g2 g2 B2/3d2/3g2/3:|[2 g2g2 g2B2
K:D
|"D"A2A2 FAdf|"D"a2a2 f4|"A7"a2^g2 =g2e2|"D"b2a^g "A7"a4|"D"A2A2 FAdf|\
"D"a2a2 f4|"A7"a2^g2 =g2e2|"D"d2f2 "D7"d2|
K:G
B2/3d2/3g2/3|:"G"b2b2 gfge|"G"d2d2 B2G2|"D7"FGAB c2e2|"G"ed^cd "D7"B2 B2/3d2/3g2/3|
"G"b2b2 gfge|"G"d2d2 B2G2|"D7"FGAB cdef|[1"G"g2g2 g2 B2/3d2/3g2/3:|[2 g2g2 g2B2
K:C
f2|"C"e2e2 efg2|"C"e2e2 efg2|"G7"fefg fdB2|
"G7"fefg fdB2|"C"e2e2 efg2|"C"e2e2 efg2|"G7"fefg fdBd|"C"c2e2 c2|
K:G
B2/3d2/3g2/3|:"G"b2b2 gfge|"G"d2d2 B2G2|"D7"FGAB c2e2|"G"ed^cd "D7"B2 B2/3d2/3g2/3|
"G"b2b2 gfge|"G"d2d2 B2G2|"D7"FGAB cdef|[1"G"g2g2 g2 B2/3d2/3g2/3:|[2 g2g2 g2B2


